X: 15738
T: Goldies
R: slip jig
M: 9/8
K: Adorian
|:A2e ecd c2A|edc deg e2g|dcA DEG G2B|DEG GAc d2e|
A2e ecd c2A|edc deg e2g|dcA DEG G2B|DEG GAc A3:|
|:A2c z2A AGE|G2E zGE G2E|DED DEG GEG|A2A ABc dBG|
[1 A2c z2A AGE|G2E zGE G2E|DED DEG GEG|A2A Ade dcG:|
[2 A2c z2A AGE|G2E zGE G2E|ded dcA cAG|~A3 A B/c/d e z2||

